!!!!SEGMENT: pl-wtm--r-1226--019_lodwigowski-edward-stefan--moja-roziu-jakzes-ladna.krn
!!!cenid: 18xx:1935
!!!COM: Łodwigowski, Edward Stefan
!!!COM-rismID:
!!!CDT: 1815/08/14-1895/11/12
!!!CNT: Polish
!!!OTL: Moja Róziu jakżeś ładna
!!!PDT:
!!!AGN:
!!!SMS-siglum: PL-Wtm
!!!SMS-shelfmark: R 1226
!!!SMS-shelfwork: 019 W
!!!SMS-variant:
!!!SMS-altvar:
!!!NIFC-rismSourceID: 1001084007
!!!NIFC-islandoraID:
!!!URL-pdf-islandora:
!!!URL-scan:
!!!ONB-nifc: UWAGA: No. 67
!!!OMD: Allegro
!!!AIN: 1 forte
!!!key:
**kern	**fing	**kern	**fing	**dynam
*part1	*part1	*part1	*part1	*part1
*staff2	*staff2	*staff1	*staff1	*
*Iforte	*	*Iforte	*	*
*I"Fortepian	*	*I"Fortepian	*	*
*clefF4	*	*clefG2	*	*
*k[f#c#]	*	*k[f#c#]	*	*
*D:	*	*D:	*	*
*M3/8	*	*M3/8	*	*
*all\right	*	*all\right	*	*
=1	=1	=1	=1	=1
*^	*	*	*	*
*2\right	*2\right	*below	*	*	*
!	!	!	!LO:TX:a:i:t=Moja Róziu jakżeś ładna.	!	!
!	!	!	!LO:TX:a:Bi:t=No 67.	!	!
!	!	!	!LO:TX:t=P:problem=błędne oznaczenie metryczne	!	!LO:DY:rj
4r	2.D\	5	(8f#/L	3	p
.	.	.	8e/J	.	.
4A 4F#/	.	.	4f#/	.	.
4A 4E/	.	.	4g/	1	.
=2	=2	=2	=2	=2	=2
*	*	*	*Xtuplet	*	*
!	!	!	!LO:TUP:b:problem=klamra łukowa, łuczek zamiast numeru	!	!
4r	2D\	.	12a/L	.	.
.	.	.	12b/	.	<
.	.	.	12cc#/J	.	.
4A 4F#/	.	.	4dd\	1	.
4G 4C#/	4AA\	.	4ee\)	3	[[
=3	=3	=3	=3	=3	=3
4r	2.D\	.	(4.ff#\	4	.
4A 4F#/	.	.	.	.	.
.	.	.	8dd\L	.	>
4A 4F#/	.	.	8a\	1	.
.	.	.	8f#\J	3	]]
=4	=4	=4	=4	=4	=4
4r	2.AA\	.	8g/L	4	.
.	.	.	8f#/J	.	.
4G 4D/	.	.	4e/	.	.
4G 4C#/	.	.	4a/)	5	.
!!LO:LB:g=original
=5	=5	=5	=5	=5	=5
4r	[2.D\	.	(8f#/L	.	.
.	.	.	8e/J	.	.
4A 4F#/	.	.	4f#/	.	.
4A 4E/	.	.	4g/	4	.
=6	=6	=6	=6	=6	=6
!	!	!	!LO:TUP:b:problem=klamra łukowa, łuczek zamiast numeru	!	!LO:HP:t=cres
4A 4F#/	4D\]	.	12a/L	1	<
.	.	.	12b/	.	.
.	.	.	12cc#/J	.	.
4A#X 4F#/	4C#\	.	4ee\	.	.
4B: 4F#:/	4BB:\	.	4dd\)	.	.
=7	=7	=7	=7	=7	=7
4r	2.E\	.	(8g#X/L	1	.
.	.	.	8b/J)	2	.
4d 4A/	.	.	(4.ff#\	5	.
.	.	.	.	.	>
4d 4G#X/	.	.	.	.	.
.	.	.	8ee\)	.	]]
=8	=8	=8	=8	=8	=8
4r	2A\	.	8ee\L	.	.
.	.	.	8cc#\J	.	.
!	!	!	!LO:TX:b:i:t=ralen.	!	!
.	.	.	(8qa/	.	.
4e 4c#/	.	.	(4.aa\)	.	.
4rd	4r	.	.	.	.
.	.	.	8gg\)	.	.
=9	=9	=9	=9	=9	=9
!	!	!	!LO:TX:a:i:t=a tempo.	!	!LO:DY:rj
4r	2.D\	.	(8.ff#\L	.	f
.	.	.	16ee\Jk	.	.
4A 4F#/	.	.	4ff#\	.	.
4A 4E/	.	.	4gg\)	1	.
!!LO:LB:g=original
=10	=10	=10	=10	=10	=10
!	!	!	!LO:TUP:a:problem=klamra łukowa, łuczek zamiast numeru	!	!
4r	2D\	.	(12aa\L	.	.
.	.	.	12bb\	.	<
.	.	.	12ccc#\J	.	.
4A 4F#/	.	.	4ddd\	.	.
4G 4C#/	4AA\	.	4eee\)	.	[
=11	=11	=11	=11	=11	=11
4r	2.D\	.	(4.fff#\	.	.
4A 4F#/	.	.	.	.	>
.	.	.	8ddd\L	.	.
4A 4F#/	.	.	8aa\	.	.
.	.	.	8ff#\J	.	]]
=12	=12	=12	=12	=12	=12
4r	2AA\	.	8gg\L	.	.
.	.	.	8ff#\J	.	.
4G 4D/	.	.	4ee\	.	.
4G 4C#/	4ryy	.	8aa|\)	.	.
.	.	.	8r	.	.
=13	=13	=13	=13	=13	=13
!	!	!	!LO:TX:a:i:t=dol&colon;	!	!LO:DY:rj
4r	[2.D\	.	8f#/L	.	p
.	.	.	(8e/J	.	.
4A 4F#/	.	.	4f#/	.	.
4A 4E/	.	.	4g/	4	.
=14	=14	=14	=14	=14	=14
!	!	!	!LO:TUP:b:problem=łuczek zamiast numeru	!	!
4A 4F#/	4D\]	.	12a/L	.	.
.	.	.	12b/	.	<
.	.	.	12cc#/J	.	.
4A#X 4F#/	4C#\	.	4ee\	.	.
4B: 4F#:/	4BB:\	.	4dd\)	.	[
!!LO:LB:g=original
=15	=15	=15	=15	=15	=15
4r	2.E\	.	(8g#X/L	.	.
.	.	.	8b/J)	.	.
4d 4A/	.	.	(4.ff#\	.	.
.	.	.	.	.	>
4d 4G#X/	.	.	.	.	.
.	.	.	8ee\)	.	]]
=16	=16	=16	=16	=16	=16
4r	2A\	.	(8ee\L	.	.
.	.	.	8cc#\J)	.	.
!	!	!	!LO:TX:b:i:t=ralen	!	!
4e 4c#/	.	.	(4.a/	.	.
4r	4rd	.	.	.	.
.	.	.	8g/)	.	.
*v	*v	*	*	*	*
=17	=17	=17	=17	=17
*	*above	*	*	*
!	!	!LO:TX:a:i:t=a tem	!	!
(4.D\	5	(8g/L	3	.
.	.	8f#/J)	2	.
.	.	(4ee\	5	.
8F#\L	3	.	.	.
8A\	.	4dd\)	.	.
8d\J)	.	.	.	.
=18	=18	=18	=18	=18
*^	*	*	*	*
*	*	*	*2\right	*	*
!LO:N:vis=2	!	!	!	!	!
4G/	2.G\	.	(2cc#\	.	.
4e 4B\	.	.	.	.	.
4e#X 4B\	.	.	4b\)	.	.
*v	*v	*	*	*	*
=19	=19	=19	=19	=19
(4.F#\	5	(8b\L	3	.
.	.	8a#X|<\J)	2	.
.	.	(4gg\	5	.
8A#X\L	3	.	.	.
8c#\	.	4ff#\)	.	.
8f#\J)	.	.	.	.
!!LO:LB:g=original
=20	=20	=20	=20	=20
*^	*	*	*	*
*	*	*below	*	*	*
4r	[2B\	4	(2ee\	.	.
4g 4c#/	.	.	.	.	.
4f# 4d/	8B\L]	.	4dd\)	.	.
.	8B-X\J	5	.	.	.
=21	=21	=21	=21	=21	=21
4r	2A\	5	(8ff#\L	4	.
.	.	.	8dd\J	2	.
4f# 4d/	.	.	4a/	1	.
4fn 4d/	4ryy	.	4dd 4g#X/	2 5	.
=22	=22	=22	=22	=22	=22
4r	2A\	.	2.ee 2.gn/)	.	.
4e 4c#/	.	.	.	.	.
4e 4c#/	4ryy	.	.	.	.
=23	=23	=23	=23	=23	=23
4r	2.AA\	.	(8e/L	2	.
.	.	.	8f#/J	3	.
4G 4C#/	.	.	4g/	1	.
4G 4E/	.	.	8cc#\L	3	.
.	.	.	8b\J	.	.
=24	=24	=24	=24	=24	=24
4r	2.D\	4	2.a/)	.	.
4A 4F#/	.	.	.	.	.
4A 4F#/	.	.	.	.	.
!!LO:LB:g=original
=25	=25	=25	=25	=25	=25
4r	2BB\	.	(8dd\L	3	.
.	.	.	.	.	<
.	.	.	8cc#\J	2	.
4F# 4D/	.	.	4dd\	1	.
4G#X 4D/	4BB-X\	.	4ee\)	3	[[
=26	=26	=26	=26	=26	=26
4r	4AA\	.	(4.ff#\	4	sf
4A 4F# 4D|/	4r	.	.	.	.
.	.	.	.	.	>
.	.	.	8dd\L	2	.
4rAA	4rA	.	8a\	1	.
.	.	.	8f#\J)	2	]]
=27	=27	=27	=27	=27	=27
*	*	*	*	*below	*
4r	2.AA\	.	(8e/L	1	.
.	.	.	8f#/J	.	.
!	!	!	!LO:TX:t=P:problem=16 połączona z przednutkami	!	!
4G 4E 4D/	.	.	4g/	.	.
.	.	.	16qqa\LL	.	.
.	.	.	16qqg\	.	.
.	.	.	16qqf#\	.	.
.	.	.	16qqg\JJ	.	.
4G 4E 4C#/	.	.	8b/L	.	.
.	.	.	8a/J	.	.
*v	*v	*	*	*	*
=28	=28	=28	=28	=28
4F# 4D'\	.	2d/)	.	.
4DD'/	.	.	.	.
4r	.	4r	.	.
==	==	==	==	==
*-	*-	*-	*-	*-
!!!system-decoration: {p1}
!!!RDF**kern: > = above
!!!RDF**kern: < = below
!!!RDF**kern: | = vertical stroke
!!!ENC: Andrzej Kubiczek
!!!END: 2021-05-02
!!!ENC: Andrzej Gręziak
!!!END: 2021-04-17
